!!!!SEGMENT: pl-wnifc--6432-n--011_nowakowski-jozef--walc-no-11.krn
!!!cenid: 18xx:3934
!!!COM: Nowakowski, Józef
!!!COM-rismID: pe175316
!!!CDT: 1880/09/16-1865/08/27
!!!CNT: Polish
!!!OTL: Walc No. 11
!!!PDT: 1825
!!!AGN:
!!!YEC: Copyright 2022 Narodowy Instytut Fryderyka Chopina (https://polishscores.org)
!!!YEM: License CC-BY-4.0 (https://creativecommons.org/licenses/by/4.0)
!!!SMS-siglum: PL-Wnifc
!!!SMS-shelfmark: 6432/n
!!!SMS-shelfwork: 011 W
!!!SMS-variant:
!!!SMS-altvar:
!!!NIFC-rismSourceID: 1001134716
!!!NIFC-rismChildID: 1001134757
!!!NIFC-islandoraID: nifc:212700
!!!URL-pdf-islandora: https://repozytorium.nifc.pl/islandora/object/nifc%3A212700/datastream/PDF/view
!!!URL-scan: https://polish.musicsources.pl/pl/lokalizacje/galeria/druki-muzyczne/16851 @EN{Scan on Polish Music Sources Website} @PL{Skany w portalu Dziedzictwo Muzyki Polskiej w otwartym dostępie}
!!!IIIF:
!!!ONB-nifc: UWAGA: w źródle 5 Mazurów (001-005), 4 Anglezy (006-009), 2 Walce (010-011) i Fantaisie Valse (012).
!!!AIN: 2 piano
!!!key: G
**kern	**kern	**dynam
*part2	*part1	*
*staff2	*staff1	*
*I"Piano	*I"Piano	*
*I'P-no	*I'P-no	*
*Ipiano	*Ipiano	*
*ICklav	*ICklav	*
*clefF4	*clefG2	*
*k[f#]	*k[f#]	*
*G:	*G:	*
*M3/4	*M3/4	*
!	!	!LO:DY:b:t=for
4r	8.dd\L	f
.	16dd\Jk	.
=1	=1	=1
2GG/ 2G	2g\ 2b 2gg	.
8.GG/L 8.G	8.B/L 8.d 8.g	.
16GG/Jk 16G	16B/Jk 16d 16g	.
=2	=2	=2
4GG/ 4G	4B/ 4d 4g	.
4GG/ 4G	4B/ 4d 4g	.
4GG/ 4G	4B/ 4d 4g	.
=3	=3	=3
*	*^	*
2FF#/ 2F#	2d/ 2a 2dd	2ryy	.
8.DD/L 8.D	8.dd/L	4f#\ 4a	.
16DD/Jk 16D#X	16cc/Jk	.	.
*	*v	*v	*
=4	=4	=4
4EE/ 4E	4g/ 4b	.
4r	4r	.
4ryy	8.g/L	.
.	16g/Jk	.
=5	=5	=5
8qBB/	.	.
4C^/	4e^/ 4g 4ee	.
4CC/	4r	.
4r	8.g/L	.
.	16g/Jk	.
=6	=6	=6
8qAA#X/	.	.
4BB/	4d^/ 4g 4dd	.
4BBB/	4r	.
4r	8.g/L	.
.	16g/Jk	.
=7	=7	=7
4AAA/ 4AA	4f#/ 4cc	.
4AA\ 4A	4d/ 4f# 4cc	.
4GG/ 4G	4d/ 4g 4b	.
=8	=8	=8
4FF#/ 4F#	4d/ 4a	.
4DD/ 4D	4d^/ 4f# 4dd	.
4r	8d/L	.
.	8g/J	.
==9	==9	==9
*^	*	*
!	!	!LO:TX:a:t=dolce	!
4r	2G\	(2b/	.
4B/ 4d	.	.	.
4B/ 4d	4ryy	8a/L	.
.	.	8g/J)	.
=10	=10	=10	=10
4r	2A\	(2f#/	.
4c/ 4d	.	.	.
4c/ 4d	4ryy	8a/L	.
.	.	8cc/J)	.
!LO:LB:g=original	!LO:LB:g=original	!LO:LB:g=original	!
=11	=11	=11	=11
4r	2F#\	4.ee\	.
4A/ 4c 4d	.	.	.
.	.	(>(8qee/	.
.	.	16ff#\LL)	.
.	.	16ee\JJ	.
4A/ 4c 4d	4ryy	8dd\L	.
.	.	8cc\J	.
=12	=12	=12	=12
4r	2G\	4b\)	.
4B/ 4d	.	8r	.
.	.	8g/L	.
4r	4r	8b/	.
.	.	8dd/J	.
=13	=13	=13	=13
!	!	!	!LO:DY:b:t=for
4r	2.BB\	2g\ 2dd 2gg	f
4D/ 4G	.	.	.
4D/ 4G	.	(8.dd\L	.
.	.	16dd#X\Jk	.
=14	=14	=14	=14
4r	2.C\	8ee\L	.
.	.	8b\J	.
4E/ 4A	.	8cc/L	.
.	.	(8e/J	.
4E/ 4A	.	8b^/L)	.
.	.	8a/J	.
=15	=15	=15	=15
4r	2.D\	(16g/LL	.
.	.	16a/	.
.	.	16g/	.
.	.	16f#/JJ	.
4G/ 4B	.	8g/L	.
.	.	8ee/	.
4A/ 4c	.	8dd/	.
.	.	8f#/J)	.
=16	=16	=16	=16
!	!	!LO:TX:b:t=Fine	!
4B/	4G\	4g/	.
4GG/	2ryy	4r;	.
==17	==17	==17	==17
4r	.	8.b/L	f
.	.	16a/Jk	.
=18	=18	=18	=18
4r	2.AA\	12a/L	.
.	.	12b/	.
.	.	12a/J	.
4E/ 4G 4A	.	8g#X/L	.
.	.	8a/	.
4E/ 4G 4A	.	8b/	.
.	.	8cc#X/J	.
=19	=19	=19	=19
4r	2.D\	8dd/L	.
.	.	8f#/	.
4F#/ 4A	.	8a/	.
.	.	8dd/	.
4F#/ 4A	.	8ff#/	.
.	.	8a/J	.
=20	=20	=20	=20
4r	2.AA\	8gg/L	.
.	.	8cc/	.
4E/ 4G 4A	.	8ee/	.
.	.	8a/	.
4E/ 4G 4A	.	8ccc/	.
.	.	8aa/J	.
=21	=21	=21	=21
4r	2.D\	8ddd\L	.
.	.	8aa\	.
4F#/ 4A	.	8gg\	.
.	.	8ff#\	.
4F#/ 4A	.	8ee\	.
.	.	8dd\J	.
!LO:LB:g=original	!LO:LB:g=original	!LO:LB:g=original	!
=22	=22	=22	=22
4r	2.AA\	12a/L	.
.	.	12b/	.
.	.	12a/J	.
4E/ 4G 4A	.	8g#X/L	.
.	.	8a/	.
4E/ 4G 4A	.	8b/	.
.	.	8cc#X/J	.
=23	=23	=23	=23
4r	2D\	8dd\L	.
.	.	8ff#\	.
4F#/ 4A	.	8aa\	.
.	.	8ddd\	.
4e/	4G\ 4B	8ccc#X\	.
.	.	8bb\J	.
=24	=24	=24	=24
2f#/	2A\ 2d	8bb\L	.
.	.	8aa\	.
.	.	8gg#X\	.
.	.	8aa\	.
4A\ 4c 4g	4ryy	8ggn\	.
.	.	8ee\J	.
*v	*v	*	*
=25	=25	=25
4d\ 4f#	4dd\	.
4D\	4r	.
4r	8d/L	.
!	!LO:TX:a:t=Trio	!
!	!LO:TX:b:t=Dal Segno.	!
.	8g/J	.
==26	==26	==26
*k[]	*k[]	*
(32qqGG/LLL	.	.
32qqAA/)	.	.
32qqBB/JJJ	.	.
8.C/L	8.G/L 8.c 8.e	p
16C/Jk	16G/Jk 16c 16e	.
=27	=27	=27
4CC/ 4C	4G'/ 4c 4e	.
4CC/ 4C	4G'/ 4c 4e	.
4CC/ 4C	4G'/ 4c 4e	.
=28	=28	=28
4CC/ 4C	4G'/ 4c 4e	.
4CC/ 4C	4G'/ 4c 4e	.
4CC/ 4C	4G'/ 4c 4e	.
=29	=29	=29
4CC/ 4C	4G'/ 4c 4e	.
4CC/ 4C	4G/ 4c 4e	.
4CC/ 4C	4G/ 4c 4e	.
=30	=30	=30
4CC/ 4C	4G/ 4c 4e	.
4r	8r	.
.	(8cc\L	.
!	!LO:TX:a:t=dolce	!
4r	8ee\	.
.	8gg\J	.
=31	=31	=31
4C\ 4c	4ccc\)	.
4G\ 4c 4e	8r	.
.	8cc\L	.
4G\ 4c 4e	8dd\	.
.	8ee\J	.
=32	=32	=32
4FF\ 4F	(4ee\	.
4F\ 4A 4d	4dd\)	.
4F\ 4A 4d	(8dd\L	.
.	8ee\J)	.
=33	=33	=33
4GG\ 4G	12ff\L	.
.	12gg\	.
.	12ff\J	.
4G\ 4B 4f	8ee\L	.
.	8ff\	.
4G\ 4B 4f	8gg\	.
.	8dd\J	.
=34	=34	=34
(4A\	(4ff\	.
8c\) 8e	8ee\L)	.
8r	8cc\	.
4r	8ee\	.
.	8gg\J	.
=35	=35	=35
!	!	!LO:DY:b:t=for
4CC/ 4C	4cc\ 4ccc	f
8r	8r	.
8C\L 8c	8cc\L	.
8BB\ 8B	8dd\	.
8BB-X\J 8B-X	8ee\J	.
!LO:LB:g=original	!	!LO:LB:g=original
=36	=36	=36
4AA\ 4A	8.ff\L	.
.	16cc\K	.
4GG\ 4G	8.gg\	.
.	16cc\Jk	.
4FF\ 4F	4aa\	.
=37	=37	=37
4GG\ 4G	(8aa\L	.
.	8gg\J)	.
4G\ 4d 4f	(8a/L	.
.	8cc/	.
4G\ 4d 4f	8b/	.
.	8dd/J)	.
=38	=38	=38
4c\ 4e	4cc\	.
4C/	4r	.
=:|:!39	=:|:!39	=:|:!39
!	!	!LO:DY:b:t=for
4r	(8.ff\L	f
.	16ee\Jk)	.
=40	=40	=40
4EE'/ 4E	4ee'\	.
4E'\ 4e	4ee'\	.
4D'\ 4d	4ee'\ 4gg#X	.
=41	=41	=41
8.C'\L 8.c	8.ee'\L 8.aa	.
16BB'\Jk 16B	16ee'\Jk 16bb	.
4AA'\ 4A	4ee'\ 4ccc	.
4r	(8.ee-X\L	.
.	16dd\Jk)	.
=42	=42	=42
4DD/ 4D	4dd'\	.
4D\ 4d	4dd'\	.
4C\ 4c	4dd\ 4ff#X	.
=43	=43	=43
8.BB\L 8.B	8.dd\L 8.gg	.
16AA\Jk 16A	16dd\Jk 16aa	.
4GG/ 4G	4dd\ 4bb	.
4r	(8dd\L	.
.	8ee\J)	.
=44	=44	=44
4GG/ 4G	4ff\	.
.	(8qgg/	.
4G\ 4B 4f	8ff\L)	.
.	(8ee\	.
4G\ 4B 4f	8ff\	.
.	8aa\J)	.
=45	=45	=45
4C\ 4c	8gg\L	.
.	8eee\	.
4G\ 4c 4e	8bb\	.
.	8ccc\	.
4G\ 4c 4e	8gg\	.
.	8ee\J	.
=46	=46	=46
4G\	(8dd\L	.
.	8ee\	.
4d\ 4f	8ff\	.
.	8ff#X\	.
4d\ 4f	8gg\	.
.	8b\J)	.
=47	=47	=47
!	!LO:TX:b:t=da Capo Val.	!
4c\ 4e	(4dd\	.
4C/	4cc\)	.
=:|!	=:|!	=:|!
*-	*-	*-
!!!RDF**kern: > = above
!!!RDF**kern: < = below
!!!system-decoration: [(s1,s2)]
!!!ENC: Berenika Jozajtis
!!!END: 2022-07-27
!!!ENC: Julita Ruszuk
!!!END: 2022-08-24
